logos/storybook.svg

<?xml version="1.0" encoding="UTF-8"?>
<svg width="512px" height="103px" viewBox="0 0 512 103" version="1.1" xmlns="http://www.w3.org/2000/svg" xmlns:xlink="http://www.w3.org/1999/xlink" preserveAspectRatio="xMidYMid">
    <defs>
        <path d="M3.17582976,94.3582095 L0.00368688625,9.83496939 C-0.101076557,7.04349832 2.03932352,4.67775913 4.82731978,4.50350935 L76.7202563,0.0102008313 C79.5581036,-0.167164621 82.0024166,1.9895821 82.1797821,4.8274295 C82.1864645,4.93434866 82.1898081,5.04145033 82.1898081,5.1485781 L82.1898081,97.2515965 C82.1898081,100.094981 79.8847895,102.4 77.0414047,102.4 C76.9643762,102.4 76.8873573,102.398271 76.8104064,102.394815 L8.0896129,99.3083453 C5.41320975,99.1881395 3.27630525,97.035426 3.17582976,94.3582095 L3.17582976,94.3582095 Z" id="path-1"></path>
    </defs>
		<g>
				<path d="M136.3968,81.05728 C132.027711,81.05728 127.822527,80.4701926 123.78112,79.296 C119.739713,78.1218074 116.381027,76.497077 113.70496,74.42176 L117.80096,65.32864 C123.371548,69.206206 129.624712,71.14496 136.56064,71.14496 C140.165138,71.14496 142.936737,70.5578726 144.87552,69.38368 C146.814303,68.2094874 147.78368,66.584757 147.78368,64.50944 C147.78368,62.6525773 146.896222,61.2053386 145.12128,60.16768 C143.346338,59.1300214 140.192449,58.1196849 135.65952,57.13664 C130.580455,56.0989814 126.525455,54.8428874 123.4944,53.36832 C120.463345,51.8937526 118.251527,50.0778775 116.85888,47.92064 C115.466233,45.7634025 114.76992,43.1010291 114.76992,39.93344 C114.76992,36.4381691 115.739297,33.3252403 117.67808,30.59456 C119.616863,27.8638797 122.333849,25.7203277 125.82912,24.16384 C129.324391,22.6073522 133.365737,21.82912 137.95328,21.82912 C142.0493,21.82912 145.995074,22.4298607 149.79072,23.63136 C153.586366,24.8328593 156.603722,26.4439365 158.84288,28.46464 L154.74688,37.55776 C149.44936,33.680194 143.878856,31.74144 138.0352,31.74144 C134.70377,31.74144 132.082356,32.3831404 130.17088,33.66656 C128.259404,34.9499796 127.30368,36.7112422 127.30368,38.9504 C127.30368,40.2611267 127.672316,41.3397292 128.4096,42.18624 C129.146884,43.0327508 130.375671,43.7836767 132.096,44.43904 C133.816329,45.0944033 136.260251,45.7770632 139.42784,46.48704 C146.85529,48.1254482 152.19369,50.2280404 155.4432,52.79488 C158.69271,55.3617196 160.31744,58.9115507 160.31744,63.44448 C160.31744,68.9058406 158.214848,73.2065976 154.0096,76.34688 C149.804352,79.4871624 143.933478,81.05728 136.3968,81.05728 L136.3968,81.05728 Z M189.97248,71.88224 C191.228593,71.88224 192.5393,71.8003208 193.90464,71.63648 L193.24928,80.64768 C191.665485,80.8661345 190.081715,80.97536 188.49792,80.97536 C182.381196,80.97536 177.916601,79.6373468 175.104,76.96128 C172.291399,74.2852132 170.88512,70.2165606 170.88512,64.7552 L170.88512,49.35424 L163.26656,49.35424 L163.26656,40.09728 L170.88512,40.09728 L170.88512,28.3008 L183.25504,28.3008 L183.25504,40.09728 L193.3312,40.09728 L193.3312,49.35424 L183.25504,49.35424 L183.25504,64.67328 C183.25504,69.4792773 185.494164,71.88224 189.97248,71.88224 L189.97248,71.88224 Z M218.7264,80.97536 C214.466539,80.97536 210.725563,80.1152087 207.50336,78.39488 C204.281157,76.6745513 201.796275,74.2442824 200.04864,71.104 C198.301005,67.9637176 197.4272,64.2637012 197.4272,60.00384 C197.4272,55.7439788 198.301005,52.0439624 200.04864,48.90368 C201.796275,45.7633976 204.281157,43.3467817 207.50336,41.65376 C210.725563,39.9607383 214.466539,39.11424 218.7264,39.11424 C222.986261,39.11424 226.727237,39.9607383 229.94944,41.65376 C233.171643,43.3467817 235.656525,45.7633976 237.40416,48.90368 C239.151795,52.0439624 240.0256,55.7439788 240.0256,60.00384 C240.0256,64.2637012 239.151795,67.9637176 237.40416,71.104 C235.656525,74.2442824 233.171643,76.6745513 229.94944,78.39488 C226.727237,80.1152087 222.986261,80.97536 218.7264,80.97536 L218.7264,80.97536 Z M218.7264,71.55456 C224.733897,71.55456 227.7376,67.7043584 227.7376,60.00384 C227.7376,56.126274 226.959368,53.2317962 225.40288,51.32032 C223.846392,49.4088438 221.620921,48.45312 218.7264,48.45312 C212.718903,48.45312 209.7152,52.3033216 209.7152,60.00384 C209.7152,67.7043584 212.718903,71.55456 218.7264,71.55456 L218.7264,71.55456 Z M274.26816,49.27232 L267.30496,50.0096 C263.864302,50.3372815 261.434033,51.3066586 260.01408,52.91776 C258.594127,54.5288614 257.88416,56.6724132 257.88416,59.34848 L257.88416,80.32 L245.51424,80.32 L245.51424,40.09728 L257.39264,40.09728 L257.39264,46.89664 C259.413343,42.2544835 263.591222,39.7149888 269.9264,39.27808 L273.53088,39.03232 L274.26816,49.27232 L274.26816,49.27232 Z M310.21056,40.1792 L322.33472,40.1792 L298.0864,95.0656 L285.55264,95.0656 L293.25312,78.10816 L276.70528,40.1792 L289.56672,40.1792 L299.7248,65.73824 L310.21056,40.1792 L310.21056,40.1792 Z M351.00672,39.11424 C354.50199,39.11424 357.587612,39.9607383 360.26368,41.65376 C362.939748,43.3467817 365.028685,45.7633976 366.53056,48.90368 C368.032435,52.0439624 368.78336,55.689366 368.78336,59.84 C368.78336,63.990634 368.032435,67.6633441 366.53056,70.85824 C365.028685,74.0531359 362.926093,76.5380178 360.22272,78.31296 C357.519347,80.0879022 354.447378,80.97536 351.00672,80.97536 C348.221427,80.97536 345.709238,80.3882726 343.47008,79.21408 C341.230922,78.0398874 339.51062,76.415157 338.30912,74.33984 L338.30912,80.32 L326.10304,80.32 L326.10304,22.5664 L338.47296,22.5664 L338.47296,45.504 C339.67446,43.4832965 341.38111,41.9131789 343.59296,40.7936 C345.80481,39.6740211 348.27604,39.11424 351.00672,39.11424 L351.00672,39.11424 Z M347.40224,71.55456 C350.29676,71.55456 352.535885,70.5305702 354.11968,68.48256 C355.703475,66.4345498 356.49536,63.5537252 356.49536,59.84 C356.49536,56.1808883 355.703475,53.381983 354.11968,51.4432 C352.535885,49.504417 350.29676,48.53504 347.40224,48.53504 C344.50772,48.53504 342.268595,49.5317233 340.6848,51.52512 C339.101005,53.5185167 338.30912,56.3447283 338.30912,60.00384 C338.30912,63.7175652 339.101005,66.5710833 340.6848,68.56448 C342.268595,70.5578767 344.50772,71.55456 347.40224,71.55456 Z M395.65312,80.97536 C391.39326,80.97536 387.652283,80.1152087 384.43008,78.39488 C381.207877,76.6745513 378.722995,74.2442824 376.97536,71.104 C375.227725,67.9637176 374.35392,64.2637012 374.35392,60.00384 C374.35392,55.7439788 375.227725,52.0439624 376.97536,48.90368 C378.722995,45.7633976 381.207877,43.3467817 384.43008,41.65376 C387.652283,39.9607383 391.39326,39.11424 395.65312,39.11424 C399.91298,39.11424 403.653957,39.9607383 406.87616,41.65376 C410.098363,43.3467817 412.583245,45.7633976 414.33088,48.90368 C416.078515,52.0439624 416.95232,55.7439788 416.95232,60.00384 C416.95232,64.2637012 416.078515,67.9637176 414.33088,71.104 C412.583245,74.2442824 410.098363,76.6745513 406.87616,78.39488 C403.653957,80.1152087 399.91298,80.97536 395.65312,80.97536 L395.65312,80.97536 Z M395.65312,71.55456 C401.660616,71.55456 404.66432,67.7043584 404.66432,60.00384 C404.66432,56.126274 403.886088,53.2317962 402.3296,51.32032 C400.773112,49.4088438 398.54764,48.45312 395.65312,48.45312 C389.645624,48.45312 386.64192,52.3033216 386.64192,60.00384 C386.64192,67.7043584 389.645624,71.55456 395.65312,71.55456 Z M441.77408,80.97536 C437.51422,80.97536 433.773243,80.1152087 430.55104,78.39488 C427.328837,76.6745513 424.843955,74.2442824 423.09632,71.104 C421.348685,67.9637176 420.47488,64.2637012 420.47488,60.00384 C420.47488,55.7439788 421.348685,52.0439624 423.09632,48.90368 C424.843955,45.7633976 427.328837,43.3467817 430.55104,41.65376 C433.773243,39.9607383 437.51422,39.11424 441.77408,39.11424 C446.03394,39.11424 449.774917,39.9607383 452.99712,41.65376 C456.219323,43.3467817 458.704205,45.7633976 460.45184,48.90368 C462.199475,52.0439624 463.07328,55.7439788 463.07328,60.00384 C463.07328,64.2637012 462.199475,67.9637176 460.45184,71.104 C458.704205,74.2442824 456.219323,76.6745513 452.99712,78.39488 C449.774917,80.1152087 446.03394,80.97536 441.77408,80.97536 L441.77408,80.97536 Z M441.77408,71.55456 C447.781576,71.55456 450.78528,67.7043584 450.78528,60.00384 C450.78528,56.126274 450.007048,53.2317962 448.45056,51.32032 C446.894072,49.4088438 444.6686,48.45312 441.77408,48.45312 C435.766584,48.45312 432.76288,52.3033216 432.76288,60.00384 C432.76288,67.7043584 435.766584,71.55456 441.77408,71.55456 Z M512,80.32 L496.8448,80.32 L481.44384,62.37952 L481.44384,80.32 L469.07392,80.32 L469.07392,22.5664 L481.44384,22.5664 L481.44384,57.30048 L496.27136,40.1792 L511.01696,40.1792 L494.14144,59.34848 L512,80.32 Z" fill="#333333" fill-rule="nonzero"></path>
				<g>
						<mask id="mask-2" fill="white">
								<use xlink:href="#path-1"></use>
						</mask>
						<use fill="#FF4785" fill-rule="nonzero" xlink:href="#path-1"></use>
						<path d="M60.690965,12.5865913 L61.1820326,0.77574057 L71.0550945,0 L71.4804339,12.1801218 C71.4952366,12.6040182 71.1636009,12.959654 70.7397046,12.9744568 C70.5581975,12.9807952 70.3803174,12.9226038 70.2376504,12.8102158 L66.4302804,9.81090565 L61.9224476,13.2303718 C61.5845176,13.4867124 61.1027661,13.420571 60.8464256,13.082641 C60.7385188,12.9403892 60.6835476,12.7649852 60.690965,12.5865913 Z M48.0642652,38.5959606 C48.0642652,40.5989906 61.5564027,39.6389906 63.3676035,38.232 C63.3676035,24.5918437 56.0486154,17.4241563 42.6463132,17.4241563 C29.2440108,17.4241563 21.7349194,24.703363 21.7349194,35.6221788 C21.7349194,54.6391165 47.3989025,55.0030771 47.3989025,65.3759521 C47.3989025,68.2876365 45.9731259,70.016449 42.8364168,70.016449 C38.7491899,70.016449 37.1333094,67.9290742 37.323413,60.8318438 C37.323413,59.2921925 21.7349194,58.8121925 21.2596604,60.8318438 C20.0494576,78.0309588 30.7648394,82.9918438 43.0265203,82.9918438 C54.9079941,82.9918438 64.2230694,76.6587287 64.2230694,65.193972 C64.2230694,44.8121823 38.178879,45.358123 38.178879,35.2582185 C38.178879,31.1636623 41.2205363,30.6177216 43.0265203,30.6177216 C44.9275561,30.6177216 48.3494205,30.9527895 48.0642652,38.5959606 Z" fill="#FFFFFF" fill-rule="nonzero" mask="url(#mask-2)"></path>
				</g>
		</g>
</svg>

<svg xmlns:xlink="http://www.w3.org/1999/xlink" preserveAspectRatio="xMidYMid" viewBox="0 0 512 103" xmlns="http://www.w3.org/2000/svg">
  <defs>
    <path id="storybook_svg__a" d="M3.176 94.358.004 9.835a5.148 5.148 0 0 1 4.823-5.331L76.72.01a5.148 5.148 0 0 1 5.47 5.139v92.103a5.148 5.148 0 0 1-5.38 5.143L8.09 99.308a5.148 5.148 0 0 1-4.914-4.95Z"/>
  </defs>
  <path fill="#333" d="M136.397 81.057c-4.37 0-8.574-.587-12.616-1.761-4.041-1.174-7.4-2.799-10.076-4.874l4.096-9.093c5.57 3.877 11.824 5.816 18.76 5.816 3.604 0 6.376-.587 8.315-1.761 1.938-1.175 2.908-2.8 2.908-4.875 0-1.856-.888-3.304-2.663-4.341-1.775-1.038-4.929-2.048-9.461-3.031-5.08-1.038-9.135-2.294-12.166-3.769-3.03-1.474-5.242-3.29-6.635-5.447-1.393-2.158-2.09-4.82-2.09-7.988 0-3.495.97-6.608 2.91-9.338 1.938-2.731 4.655-4.875 8.15-6.431 3.495-1.557 7.537-2.335 12.124-2.335 4.096 0 8.042.6 11.838 1.802 3.795 1.202 6.813 2.813 9.052 4.834l-4.096 9.093c-5.298-3.878-10.868-5.817-16.712-5.817-3.331 0-5.953.642-7.864 1.926-1.912 1.283-2.867 3.044-2.867 5.283 0 1.311.368 2.39 1.106 3.236.737.847 1.966 1.598 3.686 2.253s4.164 1.338 7.332 2.048c7.427 1.638 12.766 3.741 16.015 6.308 3.25 2.567 4.874 6.117 4.874 10.65 0 5.46-2.102 9.762-6.307 12.902-4.206 3.14-10.077 4.71-17.613 4.71Zm53.575-9.175a33.03 33.03 0 0 0 3.933-.246l-.656 9.012a34.734 34.734 0 0 1-4.751.327c-6.117 0-10.581-1.338-13.394-4.014-2.813-2.676-4.219-6.744-4.219-12.206v-15.4h-7.618v-9.258h7.618V28.301h12.37v11.796h10.076v9.257h-10.076v15.32c0 4.805 2.24 7.208 6.717 7.208Zm28.754 9.093c-4.26 0-8-.86-11.223-2.58-3.222-1.72-5.707-4.15-7.454-7.291-1.748-3.14-2.622-6.84-2.622-11.1s.874-7.96 2.622-11.1c1.747-3.14 4.232-5.557 7.454-7.25 3.223-1.693 6.964-2.54 11.223-2.54 4.26 0 8.001.847 11.223 2.54 3.223 1.693 5.708 4.11 7.455 7.25 1.748 3.14 2.622 6.84 2.622 11.1s-.874 7.96-2.622 11.1c-1.747 3.14-4.232 5.57-7.455 7.29-3.222 1.721-6.963 2.581-11.223 2.581Zm0-9.42c6.008 0 9.012-3.85 9.012-11.551 0-3.878-.779-6.772-2.335-8.684-1.557-1.911-3.782-2.867-6.677-2.867-6.007 0-9.01 3.85-9.01 11.55 0 7.701 3.003 11.552 9.01 11.552Zm55.542-22.283-6.963.738c-3.44.327-5.871 1.297-7.29 2.908-1.42 1.61-2.13 3.754-2.13 6.43V80.32h-12.37V40.097h11.878v6.8c2.02-4.643 6.198-7.182 12.533-7.619l3.605-.246.737 10.24Zm35.943-9.093h12.124l-24.249 54.887h-12.533l7.7-16.958-16.548-37.929h12.862l10.158 25.56 10.486-25.56Zm40.796-1.065c3.495 0 6.58.847 9.257 2.54 2.676 1.693 4.765 4.11 6.267 7.25 1.501 3.14 2.252 6.785 2.252 10.936 0 4.15-.75 7.823-2.252 11.018-1.502 3.195-3.605 5.68-6.308 7.455-2.704 1.775-5.776 2.662-9.216 2.662-2.786 0-5.298-.587-7.537-1.76-2.24-1.175-3.96-2.8-5.16-4.875v5.98h-12.207V22.566h12.37v22.938c1.201-2.02 2.908-3.59 5.12-4.71s4.683-1.68 7.414-1.68Zm-3.605 32.44c2.895 0 5.134-1.023 6.718-3.071 1.583-2.048 2.375-4.93 2.375-8.643 0-3.66-.792-6.458-2.375-8.397-1.584-1.939-3.823-2.908-6.718-2.908-2.894 0-5.133.997-6.717 2.99-1.584 1.994-2.376 4.82-2.376 8.479 0 3.714.792 6.567 2.376 8.56 1.584 1.994 3.823 2.99 6.717 2.99Zm48.251 9.421c-4.26 0-8-.86-11.223-2.58-3.222-1.72-5.707-4.15-7.455-7.291-1.747-3.14-2.621-6.84-2.621-11.1s.874-7.96 2.621-11.1c1.748-3.14 4.233-5.557 7.455-7.25 3.222-1.693 6.963-2.54 11.223-2.54 4.26 0 8.001.847 11.223 2.54 3.222 1.693 5.707 4.11 7.455 7.25 1.748 3.14 2.621 6.84 2.621 11.1s-.873 7.96-2.621 11.1c-1.748 3.14-4.233 5.57-7.455 7.29-3.222 1.721-6.963 2.581-11.223 2.581Zm0-9.42c6.008 0 9.011-3.85 9.011-11.551 0-3.878-.778-6.772-2.334-8.684-1.557-1.911-3.782-2.867-6.677-2.867-6.007 0-9.011 3.85-9.011 11.55 0 7.701 3.004 11.552 9.011 11.552Zm46.121 9.42c-4.26 0-8-.86-11.223-2.58-3.222-1.72-5.707-4.15-7.455-7.291-1.747-3.14-2.621-6.84-2.621-11.1s.874-7.96 2.621-11.1c1.748-3.14 4.233-5.557 7.455-7.25 3.222-1.693 6.963-2.54 11.223-2.54 4.26 0 8 .847 11.223 2.54 3.222 1.693 5.707 4.11 7.455 7.25 1.747 3.14 2.621 6.84 2.621 11.1s-.874 7.96-2.621 11.1c-1.748 3.14-4.233 5.57-7.455 7.29-3.222 1.721-6.963 2.581-11.223 2.581Zm0-9.42c6.008 0 9.011-3.85 9.011-11.551 0-3.878-.778-6.772-2.334-8.684-1.557-1.911-3.782-2.867-6.677-2.867-6.007 0-9.011 3.85-9.011 11.55 0 7.701 3.004 11.552 9.011 11.552ZM512 80.32h-15.155l-15.401-17.94v17.94h-12.37V22.566h12.37V57.3l14.827-17.12h14.746l-16.876 19.168L512 80.32Z"/>
  <mask id="storybook_svg__b" fill="#fff">
    <use xlink:href="#storybook_svg__a"/>
  </mask>
  <use xlink:href="#storybook_svg__a" fill="#FF4785"/>
  <path fill="#FFF" d="M60.691 12.587 61.182.776 71.055 0l.425 12.18a.768.768 0 0 1-1.242.63l-3.808-3-4.508 3.42a.768.768 0 0 1-1.231-.643ZM48.064 38.596c0 2.003 13.492 1.043 15.304-.364 0-13.64-7.32-20.808-20.722-20.808-13.402 0-20.911 7.28-20.911 18.198 0 19.017 25.664 19.381 25.664 29.754 0 2.912-1.426 4.64-4.563 4.64-4.087 0-5.703-2.087-5.513-9.184 0-1.54-15.588-2.02-16.063 0-1.21 17.199 9.505 22.16 21.767 22.16 11.881 0 21.196-6.333 21.196-17.798 0-20.382-26.044-19.836-26.044-29.936 0-4.094 3.042-4.64 4.848-4.64 1.9 0 5.322.335 5.037 7.978Z" mask="url(#storybook_svg__b)"/>
</svg>
